app/images/src/icons/crown.svg

<svg width="16" height="16" viewBox="0 0 16 16" fill="none" xmlns="http://www.w3.org/2000/svg">
<path d="M7.83752 3.475C7.80939 3.49687 7.35939 4.21562 6.84064 5.075C6.13127 6.24375 5.87189 6.64687 5.80002 6.69062C5.73752 6.72813 5.64377 6.75 5.54064 6.75C5.30314 6.75 5.22189 6.6625 4.81252 5.9625C4.38439 5.23125 4.33752 5.16875 4.23127 5.14687C4.04377 5.1125 3.99064 5.16563 3.66877 5.69688C3.17814 6.50625 3.10002 6.62187 2.99064 6.6875C2.88439 6.75312 2.70627 6.76875 2.58752 6.72187C2.54689 6.70625 2.25002 6.4375 1.92814 6.125C1.35002 5.56562 1.33752 5.55625 1.22814 5.57188C1.10002 5.59375 1.01252 5.6625 0.987517 5.76562C0.975017 5.81562 1.21877 6.575 1.75314 8.13125C2.22502 9.51875 2.54689 10.5094 2.56877 10.6469C2.60314 10.8687 2.58752 11.0812 2.50314 11.4688C2.40002 11.9437 2.54064 12.2937 2.92189 12.4937L3.07814 12.5781H8.01877H12.9563L13.1406 12.4844C13.3531 12.375 13.5094 12.1906 13.5656 11.9906C13.6094 11.8281 13.5844 11.5312 13.5125 11.3438C13.4688 11.2375 13.4563 11.1094 13.4563 10.8125V10.4219L14.2313 8.17188C14.6563 6.93437 15.0063 5.875 15.0063 5.81562C15.0063 5.68437 14.925 5.59687 14.775 5.57188C14.6625 5.55625 14.6531 5.5625 14.1031 6.09375C13.7969 6.39375 13.5063 6.6625 13.4531 6.69375C13.3313 6.76875 13.1344 6.76562 13.0094 6.6875C12.9 6.62187 12.8219 6.50625 12.3313 5.69688C12.0906 5.3 12.0063 5.18437 11.9375 5.15937C11.8438 5.12812 11.7313 5.14375 11.6656 5.19375C11.6438 5.20937 11.45 5.52187 11.2344 5.8875C11.0188 6.25312 10.8 6.59062 10.7531 6.6375C10.5875 6.79688 10.3125 6.8 10.1438 6.64687C10.1 6.60938 9.65002 5.8875 9.14064 5.04688C8.63127 4.20312 8.19377 3.49687 8.16564 3.475C8.13752 3.45625 8.06252 3.4375 8.00002 3.4375C7.93752 3.4375 7.86564 3.45625 7.83752 3.475ZM8.82502 5.56562C9.27189 6.30312 9.68439 6.95625 9.74377 7.01562C9.93752 7.20937 10.0969 7.26562 10.4531 7.26562C10.7313 7.26562 10.7844 7.25625 10.9219 7.18125C11.1438 7.06562 11.2094 6.98438 11.5438 6.425L11.8375 5.93125L11.9125 6.05C11.9563 6.11875 12.0875 6.33437 12.2063 6.53125C12.575 7.14375 12.75 7.26562 13.25 7.26562C13.5938 7.26562 13.7188 7.21562 13.975 6.975L14.125 6.83437L13.8563 7.6125C13.3938 8.95 13.125 9.75312 13.0156 10.125L12.9125 10.4844L8.00314 10.4937L3.09377 10.5L3.07502 10.4156C3.05314 10.3062 2.64377 9.07187 2.20939 7.80312L1.87814 6.8375L2.02814 6.97813C2.28127 7.21562 2.40627 7.26562 2.75002 7.26562C3.25002 7.26562 3.42502 7.14375 3.79377 6.53125C3.91252 6.33437 4.04377 6.11875 4.08752 6.05L4.16252 5.93125L4.45627 6.425C4.79064 6.98438 4.85627 7.06562 5.07814 7.18125C5.21564 7.25625 5.26877 7.26562 5.54689 7.26562C5.90314 7.26562 6.06252 7.20937 6.25627 7.01562C6.31564 6.95625 6.72814 6.30312 7.17502 5.5625C7.61877 4.825 7.99064 4.22188 8.00002 4.22188C8.00939 4.22188 8.38127 4.825 8.82502 5.56562ZM12.9219 11.1469C12.9344 11.2125 12.9688 11.3687 13.0031 11.4937C13.0813 11.7906 13.0781 11.825 12.9719 11.9437L12.8813 12.0469H8.03127H3.18127L3.09064 11.9437C2.97189 11.8125 2.97502 11.7437 3.11252 11.1L3.12502 11.0312H8.01564H12.9031L12.9219 11.1469Z" fill="#443E3E"/>
<path d="M7.9156 6.56253C7.83122 6.5969 7.77497 6.68128 7.55622 7.10941C7.46872 7.28128 7.39372 7.42503 7.3906 7.43128C7.38435 7.43753 7.18122 7.46878 6.9406 7.50315C6.47497 7.56565 6.39685 7.58753 6.34372 7.68753C6.2656 7.83441 6.29997 7.90316 6.6531 8.26253L6.99372 8.60941L6.92185 8.98441C6.82497 9.47503 6.82185 9.59378 6.9156 9.68128C7.03122 9.79066 7.1531 9.76878 7.58747 9.55003L7.98435 9.35003L8.37497 9.56566C8.78122 9.78753 8.87497 9.81566 8.99372 9.73128C9.1281 9.63753 9.13122 9.59066 9.05622 9.10628L8.98747 8.65003L9.32185 8.32503C9.5031 8.14691 9.66247 7.96566 9.67497 7.92191C9.7031 7.80941 9.63435 7.66878 9.53747 7.62815C9.46872 7.60003 8.73435 7.46878 8.64997 7.46878C8.63747 7.46878 8.53747 7.28128 8.4281 7.05316C8.31872 6.82816 8.20935 6.62503 8.18435 6.60316C8.11872 6.55003 7.99372 6.53128 7.9156 6.56253ZM8.2906 7.91878C8.3281 7.94378 8.42185 7.97191 8.49997 7.98441C8.5781 7.99378 8.68122 8.01253 8.7281 8.01878L8.8156 8.03753L8.6281 8.23441C8.41872 8.45316 8.40622 8.49066 8.46872 8.81253C8.48747 8.90316 8.49372 8.98441 8.48747 8.99066C8.48122 8.99691 8.38122 8.95316 8.2656 8.89378C8.14997 8.83128 8.02185 8.78128 7.98122 8.78128C7.93747 8.78128 7.80622 8.83128 7.68122 8.89378L7.45935 9.00628L7.48122 8.91566C7.4906 8.86878 7.50935 8.73128 7.51872 8.61566L7.5406 8.40316L7.34372 8.20316L7.14997 8.00628L7.34685 7.98441C7.7031 7.94691 7.73747 7.92816 7.88122 7.66253L8.01247 7.42503L8.1156 7.65003C8.17185 7.77191 8.24997 7.89378 8.2906 7.91878Z" fill="#443E3E"/>
</svg>

<svg width="16" height="16" fill="none" xmlns="http://www.w3.org/2000/svg"><path d="M7.838 3.475c-.029.022-.479.74-.997 1.6-.71 1.169-.97 1.572-1.041 1.616a.522.522 0 0 1-.26.059c-.237 0-.318-.088-.727-.787-.429-.732-.475-.794-.582-.816-.187-.035-.24.019-.562.55-.49.81-.569.925-.678.99a.503.503 0 0 1-.403.035c-.041-.016-.338-.285-.66-.597-.578-.56-.59-.569-.7-.553-.128.022-.215.09-.24.194-.013.05.23.809.765 2.365.472 1.388.794 2.378.816 2.516.034.222.019.434-.066.822-.103.475.038.825.419 1.025l.156.084h9.878l.185-.094a.829.829 0 0 0 .425-.493c.043-.163.018-.46-.054-.647-.043-.106-.056-.235-.056-.531v-.391l.775-2.25c.425-1.238.775-2.297.775-2.356 0-.132-.081-.22-.231-.244-.113-.016-.122-.01-.672.522-.306.3-.597.568-.65.6a.457.457 0 0 1-.444-.006c-.109-.066-.187-.182-.678-.991-.24-.397-.325-.513-.393-.538a.313.313 0 0 0-.272.035c-.022.015-.216.328-.432.694-.215.365-.434.703-.48.75a.455.455 0 0 1-.61.009c-.044-.038-.494-.76-1.003-1.6-.51-.844-.947-1.55-.975-1.572A.37.37 0 0 0 8 3.437a.355.355 0 0 0-.162.038Zm.987 2.09c.447.738.86 1.391.919 1.45.194.194.353.25.71.25.277 0 .33-.009.468-.084.222-.115.287-.197.622-.756l.293-.494.075.119c.044.069.175.284.294.481.369.613.544.735 1.044.735.344 0 .469-.05.725-.291l.15-.14-.269.777c-.462 1.338-.731 2.141-.84 2.513l-.104.36-4.909.009-4.91.006-.018-.084c-.022-.11-.431-1.344-.866-2.613l-.33-.965.15.14c.252.238.377.288.721.288.5 0 .675-.122 1.044-.735.119-.197.25-.412.294-.481l.075-.119.293.494c.335.56.4.64.622.756.138.075.19.085.469.085.356 0 .516-.057.71-.25.059-.06.471-.713.918-1.454.444-.737.816-1.34.825-1.34.01 0 .381.603.825 1.344Zm4.097 5.582c.012.066.047.222.081.347.078.297.075.331-.031.45l-.09.103h-9.7l-.091-.103c-.12-.132-.116-.2.022-.844l.012-.069h9.778l.019.116Z" fill="#443E3E"/><path d="M7.916 6.563c-.085.034-.141.118-.36.546-.087.172-.162.316-.165.322-.007.007-.21.038-.45.072-.466.063-.544.085-.597.185-.078.146-.044.215.31.575l.34.346-.072.375c-.097.491-.1.61-.006.697.115.11.237.088.671-.131l.397-.2.391.216c.406.222.5.25.619.165.134-.093.137-.14.062-.625l-.069-.456.335-.325c.181-.178.34-.36.353-.403.028-.113-.04-.253-.138-.294a8.908 8.908 0 0 0-.887-.16c-.013 0-.113-.187-.222-.415-.11-.225-.219-.428-.244-.45a.305.305 0 0 0-.268-.04Zm.375 1.356a.662.662 0 0 0 .209.065c.078.01.181.029.228.035l.088.019-.188.196c-.21.22-.222.257-.16.579.02.09.026.171.02.178a1.014 1.014 0 0 1-.222-.097.975.975 0 0 0-.285-.113c-.044 0-.175.05-.3.113l-.222.112.022-.09c.01-.047.028-.185.038-.3l.022-.213-.197-.2-.194-.197.197-.022c.356-.037.39-.056.534-.321l.131-.238.104.225c.056.122.134.244.175.269Z" fill="#443E3E"/></svg>
